public/assets/cat.svg

<svg xmlns="http://www.w3.org/2000/svg" xml:space="preserve" style="fill-rule:evenodd;clip-rule:evenodd;stroke-linecap:round;stroke-linejoin:round;stroke-miterlimit:1.5" viewBox="0 0 210 210"><ellipse cx="75.374" cy="87.6" rx="38.205" ry="39.952" style="fill:var(--color-primary);stroke:#f3f3f3;stroke-width:.78px" transform="matrix(2.61745 0 0 2.50299 -92.287 -114.261)"/><path d="M118.408 20.04 120 20c28.982 0 55.101 12.356 73.352 32.096-4.511 3.779-13.495 12.576-15.404 21.281-2.47 11.261 4.439 23.644 4.668 24.903.229 1.26.563 7.858-7.331 9.877-7.895 2.018-11.691-3.383-12.38-4.404-2.253-3.339-4.539-20.796-4.606-20.772-4.872 1.801-17.567 29.052-16.32 39.248 9.094-3.851 16.51-1.085 16.51-1.085s4.9 5.642 7.582 13.1c4.048 4.654 8.961 5.022 11.67 5.252 2.709.229 13.084.31 13.084.31s4.909.739 6.137 7.209c1.229 6.47-2.381 8.826-5.02 10.078-2.64 1.252-9.119 1.581-14.638.118 2.847 3.241 3.65 6.562 3.65 6.562s-6.545 3.607-15.137 2.378c-1.617 3.185-4.347 5.775-7.974 7.407 4.606 8.649 3.179 16.999 3.179 16.999s-20.235-1.403-26.414-7.976c1.409 3.08 4.933 11.542.079 15.99-4.855 4.448-8.743 6.615-17.502 2.958-29.845-12.459-53.449-52.685-52.116-88.805 1.238-33.533 26.439-78.563 53.339-92.684Z" style="fill:#333;stroke:#f3f3f3;stroke-width:2px" transform="translate(-15 -15)"/><path d="M215.71 91.011a98.167 98.167 0 0 1 4.251 27.467c-6.838 8.905-20.332 14.432-22.915 14.582-2.693.304-9.218.699-10.314-6.737s3.658-10.787 5.519-11.136c6.793-1.761 18.637-9.399 23.459-24.176Z" style="fill:#333;stroke:#f3f3f3;stroke-width:2px" transform="translate(-15 -15)"/><path d="M136.695 150.316c4.986 0 9.034 3.975 9.034 8.87 0 4.896-4.048 8.87-9.034 8.87-4.986 0-9.034-3.974-9.034-8.87 0-4.895 4.048-8.87 9.034-8.87Zm.223 2.736c3.268 0 5.921 2.734 5.921 6.101s-2.653 6.101-5.921 6.101c-3.267 0-5.92-2.734-5.92-6.101s2.653-6.101 5.92-6.101ZM156.46 135.848c4.267 0 7.732 3.551 7.732 7.925 0 4.373-3.465 7.924-7.732 7.924s-7.731-3.551-7.731-7.924c0-4.374 3.464-7.925 7.731-7.925Zm.03 2.066c3.059 0 5.541 2.563 5.541 5.721s-2.482 5.721-5.541 5.721c-3.058 0-5.541-2.563-5.541-5.721s2.483-5.721 5.541-5.721Z" style="fill:#f3f3f3" transform="translate(-15 -15)"/><ellipse cx="121.216" cy="187.353" rx="5.876" ry="5.027" style="fill:#f3f3f3" transform="rotate(34.357 137.268 157.837)"/><ellipse cx="120.284" cy="197.52" rx="1.541" ry="1.561" style="fill:#f3f3f3" transform="translate(-14.371 -15.462)"/><ellipse cx="120.284" cy="197.52" rx="1.541" ry="1.561" style="fill:#f3f3f3" transform="translate(-8.498 -15.469)"/><ellipse cx="120.284" cy="197.52" rx="1.541" ry="1.561" style="fill:#f3f3f3" transform="translate(-4.103 -19.013)"/><ellipse cx="120.284" cy="197.52" rx="1.541" ry="1.561" style="fill:#f3f3f3" transform="translate(-3.644 -24.618)"/><g transform="translate(-15 -15)"><ellipse cx="184.413" cy="148.386" rx="3.828" ry="3.945" style="fill:#f3f3f3" transform="matrix(1.0916 0 0 1 -16.735 .091)"/><ellipse cx="188.062" cy="154.387" rx="1.416" ry="1.408" style="fill:#f3f3f3"/><ellipse cx="188.062" cy="154.387" rx="1.416" ry="1.408" style="fill:#f3f3f3" transform="translate(3.433 -3.396)"/><ellipse cx="188.062" cy="154.387" rx="1.416" ry="1.408" style="fill:#f3f3f3" transform="translate(3.94 -7.813)"/><ellipse cx="188.062" cy="154.387" rx="1.416" ry="1.408" style="fill:#f3f3f3" transform="translate(.634 -10.87)"/></g><ellipse cx="105.871" cy="91.553" rx="5.519" ry="4.74" style="fill:#f3f3f3" transform="matrix(.02204 -.99976 1.08662 .02396 -11.072 181.607)"/><ellipse cx="98.347" cy="98.893" rx="1.762" ry="1.745" style="fill:#f3f3f3" transform="translate(-14.93 -14.98)"/><ellipse cx="98.347" cy="98.893" rx="1.762" ry="1.745" style="fill:#f3f3f3" transform="translate(-10.896 -11.642)"/><ellipse cx="98.347" cy="98.893" rx="1.762" ry="1.745" style="fill:#f3f3f3" transform="translate(-5.22 -11.376)"/><ellipse cx="98.347" cy="98.893" rx="1.762" ry="1.745" style="fill:#f3f3f3" transform="translate(-.903 -14.385)"/><ellipse cx="170.26" cy="94.488" rx="4.901" ry="4.411" style="fill:#f3f3f3" transform="rotate(8.168 259.81 -8.669)"/><ellipse cx="168.084" cy="103.043" rx="1.307" ry="1.323" style="fill:#f3f3f3" transform="translate(-15.069 -15.55)"/><ellipse cx="168.084" cy="103.043" rx="1.307" ry="1.323" style="fill:#f3f3f3" transform="translate(-11.032 -14.29)"/><ellipse cx="168.084" cy="103.043" rx="1.307" ry="1.323" style="fill:#f3f3f3" transform="translate(-7.034 -15.14)"/><ellipse cx="168.084" cy="103.043" rx="1.307" ry="1.323" style="fill:#f3f3f3" transform="translate(-4.491 -18.533)"/></svg>

<svg width="100%" height="100%" viewBox="0 0 210 210" version="1.1" xmlns="http://www.w3.org/2000/svg" xmlns:xlink="http://www.w3.org/1999/xlink" xml:space="preserve" style="fill-rule:evenodd;clip-rule:evenodd;stroke-linecap:round;stroke-linejoin:round;stroke-miterlimit:1.5;">
  <g transform="matrix(2.61745,0,0,2.50299,-92.2871,-114.261)">
    <ellipse cx="75.374" cy="87.6" rx="38.205" ry="39.952" style="fill:var(--color-primary);stroke:rgb(243,243,243);stroke-width:0.78px"></ellipse>
  </g>
  <g id="Layer1" transform="matrix(1,0,0,1,-15,-15)">
    <path d="M118.408,20.04L120,20C148.982,20 175.101,32.356 193.352,52.096C188.841,55.875 179.857,64.672 177.948,73.377C175.478,84.638 182.387,97.021 182.616,98.28C182.845,99.54 183.179,106.138 175.285,108.157C167.39,110.175 163.594,104.774 162.905,103.753C160.652,100.414 158.366,82.957 158.299,82.981C153.427,84.782 140.732,112.033 141.979,122.229C151.073,118.378 158.489,121.144 158.489,121.144C158.489,121.144 163.389,126.786 166.071,134.244C170.119,138.898 175.032,139.266 177.741,139.496C180.45,139.725 190.825,139.806 190.825,139.806C190.825,139.806 195.734,140.545 196.962,147.015C198.191,153.485 194.581,155.841 191.942,157.093C189.302,158.345 182.823,158.674 177.304,157.211C180.151,160.452 180.954,163.773 180.954,163.773C180.954,163.773 174.409,167.38 165.817,166.151C164.2,169.336 161.47,171.926 157.843,173.558C162.449,182.207 161.022,190.557 161.022,190.557C161.022,190.557 140.787,189.154 134.608,182.581C136.017,185.661 139.541,194.123 134.687,198.571C129.832,203.019 125.944,205.186 117.185,201.529C87.34,189.07 63.736,148.844 65.069,112.724C66.307,79.191 91.508,34.161 118.408,20.04Z" style="fill:rgb(51,51,51);stroke:rgb(243,243,243);stroke-width:2px;"></path>
    <path d="M215.71,91.011C218.363,99.717 219.846,108.936 219.961,118.478C213.123,127.383 199.629,132.91 197.046,133.06C194.353,133.364 187.828,133.759 186.732,126.323C185.636,118.887 190.39,115.536 192.251,115.187C199.044,113.426 210.888,105.788 215.71,91.011Z" style="fill:rgb(51,51,51);stroke:rgb(243,243,243);stroke-width:2px;"></path>
    <path d="M136.695,150.316C141.681,150.316 145.729,154.291 145.729,159.186C145.729,164.082 141.681,168.056 136.695,168.056C131.709,168.056 127.661,164.082 127.661,159.186C127.661,154.291 131.709,150.316 136.695,150.316ZM136.918,153.052C140.186,153.052 142.839,155.786 142.839,159.153C142.839,162.52 140.186,165.254 136.918,165.254C133.651,165.254 130.998,162.52 130.998,159.153C130.998,155.786 133.651,153.052 136.918,153.052Z" style="fill:rgb(243,243,243);"></path>
    <path d="M156.46,135.848C160.727,135.848 164.192,139.399 164.192,143.773C164.192,148.146 160.727,151.697 156.46,151.697C152.193,151.697 148.729,148.146 148.729,143.773C148.729,139.399 152.193,135.848 156.46,135.848ZM156.49,137.914C159.549,137.914 162.031,140.477 162.031,143.635C162.031,146.793 159.549,149.356 156.49,149.356C153.432,149.356 150.949,146.793 150.949,143.635C150.949,140.477 153.432,137.914 156.49,137.914Z" style="fill:rgb(243,243,243);"></path>
    <g>
      <g transform="matrix(0.825535,0.56435,-0.56435,0.825535,128.024,-34.9299)">
        <ellipse cx="121.216" cy="187.353" rx="5.876" ry="5.027" style="fill:rgb(243,243,243);"></ellipse>
      </g>
      <g transform="matrix(1,0,0,1,0.628742,-0.462263)">
        <ellipse cx="120.284" cy="197.52" rx="1.541" ry="1.561" style="fill:rgb(243,243,243);"></ellipse>
      </g>
      <g transform="matrix(1,0,0,1,6.50215,-0.468504)">
        <ellipse cx="120.284" cy="197.52" rx="1.541" ry="1.561" style="fill:rgb(243,243,243);"></ellipse>
      </g>
      <g transform="matrix(1,0,0,1,10.8966,-4.01335)">
        <ellipse cx="120.284" cy="197.52" rx="1.541" ry="1.561" style="fill:rgb(243,243,243);"></ellipse>
      </g>
      <g transform="matrix(1,0,0,1,11.3563,-9.61787)">
        <ellipse cx="120.284" cy="197.52" rx="1.541" ry="1.561" style="fill:rgb(243,243,243);"></ellipse>
      </g>
    </g>
    <g>
      <g transform="matrix(1.0916,0,0,1,-16.7352,0.0911353)">
        <ellipse cx="184.413" cy="148.386" rx="3.828" ry="3.945" style="fill:rgb(243,243,243);"></ellipse>
      </g>
      <ellipse cx="188.062" cy="154.387" rx="1.416" ry="1.408" style="fill:rgb(243,243,243);"></ellipse>
      <g transform="matrix(1,0,0,1,3.43256,-3.39626)">
        <ellipse cx="188.062" cy="154.387" rx="1.416" ry="1.408" style="fill:rgb(243,243,243);"></ellipse>
      </g>
      <g transform="matrix(1,0,0,1,3.93949,-7.81253)">
        <ellipse cx="188.062" cy="154.387" rx="1.416" ry="1.408" style="fill:rgb(243,243,243);"></ellipse>
      </g>
      <g transform="matrix(1,0,0,1,0.634346,-10.8707)">
        <ellipse cx="188.062" cy="154.387" rx="1.416" ry="1.408" style="fill:rgb(243,243,243);"></ellipse>
      </g>
    </g>
    <g>
      <g transform="matrix(0.0220449,-0.999757,1.08662,0.0239603,3.92773,196.607)">
        <ellipse cx="105.871" cy="91.553" rx="5.519" ry="4.74" style="fill:rgb(243,243,243);"></ellipse>
      </g>
      <g transform="matrix(1,0,0,1,0.0706878,0.0197518)">
        <ellipse cx="98.347" cy="98.893" rx="1.762" ry="1.745" style="fill:rgb(243,243,243);"></ellipse>
      </g>
      <g transform="matrix(1,0,0,1,4.10401,3.35759)">
        <ellipse cx="98.347" cy="98.893" rx="1.762" ry="1.745" style="fill:rgb(243,243,243);"></ellipse>
      </g>
      <g transform="matrix(1,0,0,1,9.77938,3.62418)">
        <ellipse cx="98.347" cy="98.893" rx="1.762" ry="1.745" style="fill:rgb(243,243,243);"></ellipse>
      </g>
      <g transform="matrix(1,0,0,1,14.0972,0.614568)">
        <ellipse cx="98.347" cy="98.893" rx="1.762" ry="1.745" style="fill:rgb(243,243,243);"></ellipse>
      </g>
    </g>
    <g>
      <g transform="matrix(0.989855,0.142078,-0.142078,0.989855,16.4041,-22.0011)">
        <ellipse cx="170.26" cy="94.488" rx="4.901" ry="4.411" style="fill:rgb(243,243,243);"></ellipse>
      </g>
      <g transform="matrix(1,0,0,1,-0.0689459,-0.550701)">
        <ellipse cx="168.084" cy="103.043" rx="1.307" ry="1.323" style="fill:rgb(243,243,243);"></ellipse>
      </g>
      <g transform="matrix(1,0,0,1,3.96848,0.709967)">
        <ellipse cx="168.084" cy="103.043" rx="1.307" ry="1.323" style="fill:rgb(243,243,243);"></ellipse>
      </g>
      <g transform="matrix(1,0,0,1,7.96588,-0.139583)">
        <ellipse cx="168.084" cy="103.043" rx="1.307" ry="1.323" style="fill:rgb(243,243,243);"></ellipse>
      </g>
      <g transform="matrix(1,0,0,1,10.509,-3.53301)">
        <ellipse cx="168.084" cy="103.043" rx="1.307" ry="1.323" style="fill:rgb(243,243,243);"></ellipse>
      </g>
    </g>
  </g>
</svg>
